X:1
T:O Lord, increase our faith
T:Henry Loosemore (d 1670) ed. Crookall
T:O Lord, increase our faith
C:Henry Loosemore (d 1670)
C:ed. Crookall
%%score [ 1 2 3 4 ]
L:1/8
M:4/4
K:C
V:1 treble nm="S" snm="S."
V:2 treble nm="A" snm="A."
V:3 treble-8 transpose=-12 nm="T" snm="T."
V:4 bass nm="B" snm="B."
V:1
 A4 ^G3 G | A2 c2 B2 B2- | BB B4 d2- | d2 c2 B2 BA | ^G2 (A4 G2) | A8 | z2 E2 G2 GA | %7
w: O Lord, in-|crease our faith, strength-|* en us and|* con- firm us in|thy true *|faith;|en- due us with|
 BE G2 ^F2 F2 | z8 | z4 z2 e2- | ed d2 d3 c | B2 B2 B3 B | B4 z4 | z4 z2 A2 | c3 B/A/ A3 G | %15
w: wis- dom, with wis- dom,||cha-|* ri- ty, cha- sti-|ty, and pa- ti-|ence,|in|all our ad- ver- si-|
 ^F2 F2 A3 A | A2 (B4 ^A2) | B4 z2 ^F2 | GA B4 B2 | B4 c2 B2- | BB A4 ^G2 | A4 z4 | z2 A4 B2- | %23
w: ties. Sweet Je- sus,|say A- *|men, sweet|Je- sus, say A-|men, sweet Je-|* sus, say A-|men,|sweet Je-|
 BA A4 ^G2 | A8 |] %25
w: * sus, say A-|men.|
V:2
 E4 E3 E | E2 E2 E4 | z2 D4 D2 | G2 EA (G2 F2) | E2 E2 E3 D | ^C2 A,2 =C2 CD | EA, C2 C2 B,2 | %7
w: O Lord, in-|crease our faith,|strength- en|us and con- firm *|us in thy true|faith; en- due us with|wis- dom, with wis- dom,|
 B,2 E2- EE ^D2 | E2 E2 z2 G2- | G^F F4 E2- | E^FGD F3 E | ^DB, E4 D2 | E4 z4 | z4 E2 F2- | %14
w: en- due * us with|wis- dom, cha-|* ri- ty, cha-|* sti- ty, and pa- ti-|ence, and pa- ti-|ence,|in all|
 FE/D/ D2- D(^C/B,/ C2) | D4 z2 E2 | ^F2 F2 F3 E | ^D2 ^F2 B,^CDD | E3 (^F G2 F2) | ^G4 E2 =G2- | %20
w: * our ad- ver- * si- * *|ties. Sweet|Je- sus, say A-|men, sweet Je- sus, say A-|men, A- * *|men, sweet Je-|
 GB,CD E4 | z4 z2 F2 | E3 E A,2 F2 | E4 E3 D | ^C8 |] %25
w: * sus, say A- men,|sweet|Je- sus, say A-|men, say A-|men.|
V:3
 c4 B3 B | A2 A2 ^G4 | z2 B2- BB B2- | B2 ce e2 d2- | d2 c2 B3 B | A4 z2 A2 | c2 cd e2 e2 | z8 | %8
w: O Lord, in-|crease our faith,|strength- * en us|* and con- firm us|* in thy true|faith; en-|due us with wis- dom,||
 z2 c2- cB B2 | B3 A A3 G | G3 A B^F A2- | A2 (G2 ^F4) | ^G4 B2 c2- | cB/A/ AA A2 A2 | %14
w: cha- * ri- ty,|cha- sti- ty, and|pa- ti- ence, and pa-|* ti- *|ence, in all|* our ad- ver- si- ties, in|
 A3 G/F/ E3 E | D4 z2 A2 | A2 d2 ^c3 c | B4 z2 B2 | B3 ^c ^d (e2 d) | e4 z4 | z8 | f2 e2- ee d2- | %22
w: all our ad- ver- si-|ties. Sweet|Je- sus, say A-|men, sweet|Je- sus, say A- *|men,||sweet Je- * sus, say|
 d2 ^c2 d2 d2- | d2 (=c2 B4) | A8 |] %25
w: * A- men, say|* A- *|men.|
V:4
 A,4 E,3 D, | C,2 A,,2 E,4 | z2 G,2- G,G, G,2- | G,2 A,A, B,4 | E,3 E, E,2 E,2 | A,,8 | z4 z2 E,2 | %7
w: O Lord, in-|crease our faith,|strength- * en us|* and con- firm|us in thy true|faith;|en-|
 G,2 G,A, B,2 B,2 | z4 z2 E,2- | E,D, D,4 C,2- | C,B,, B,,4 A,,2 | B,,6 B,,2 | E,4 z2 E,2 | %13
w: due us with wis- dom,|cha-|* ri- ty, cha-|* sti- ty, and|pa- ti-|ence, in|
 F,3 E,/D,/ D,^C,D,D, | A,,6 A,,2 | D,4 z2 ^C,2 | D,3 E, ^F,2 F,2 | B,,4 z2 B,2 | E,^F,G,(A, B,4) | %19
w: all our ad- ver- si- ties, ad-|ver- si-|ties. Sweet|Je- sus, say A-|men, sweet|Je- sus, say A- *|
 E,4 z4 | z8 | A,2 C2- CE,F,G, | (A,3 G, F,E, D,2) | E,6 E,2 | A,,8 |] %25
w: men,||sweet Je- * sus, say A-|men, * * * *|say A-|men.|

